X:5877
T:Scottish double de Meyssac
O:england
C:Trad 1, 43
M:2/4
L:1/16
K:G
GABA G2D2|GABc d4:|\
|:Bddd Bddd|edcB c2 A2|\
Accc Accc|1 dcBA B2G2:|2 dcBA G4||
